X:1
T:Oh Susanna
L:1/8
Q:1/4=110
M:2/4
K:G
|:"G" z4 |"Em" z4 |"C" z4 |"D" z4 |
"G" z4 |"Em" z4 |"C" z4"D7" |"G" z4 ::
"C" C,2 C,2 |"C" C,C,- C,C, |"G" G,,3 z |"D7" D,,3 z |
"G" G,,2 A,,2 |"Em"B,,2 D,2 |"C" C,2"D7" A,,2 |"G" G,,4 ::
"G"!p! G,,4 |"Em" E,,4 |"C" C,4 |"D" D,4 |
"G" G,,4 |"Em" E,,4 |"C" C,2"D7" D,2 |"G" G,,4 ::
"C"!f! C,2 C,2 |"C" C,C,- C,C, |"G" G,,3 z |"D7" D,,3 z |
"G" G,,2 A,,2 |"Em" B,,2 D,2 |"C" C,2"D7" A,,2 |"G" G,,4 ::
